!!!COM:	Martini, Johannes
!!!CDT:	~1440///-~1497//
!!!OTL:	Lauda Jerusalem
!!!AGN:	Motet
!!!SCT:	Mar2060
!!!SCA:	Mar2060
!!!voices:	2
**kern	**kern
*staff2	*staff1
*Ivox	*Ivox
*I"Tenor	*I"Superius
*I'T	*I'S
*>[A,B,C,D,E,F,G,H,I,J,K]	*>[A,B,C,D,E,F,G,H,I,J,K]
*>A	*>A
*clefGv2	*clefG2
*k[]	*k[]
*M2/1	*M2/1
*met(C)	*met(C)
=1-	=1-
!!section: Lauda Deum tuum
!!!OMD: Lauda Deum tuum
!!LO:TX:Z=8:t=Choir 1
1c	1a
2c\	2a/
2c\	2a/
=2	=2
1c	1a
2B\	2g/
2G/	2e/
=3	=3
1A	1f
2.G/	2.e/
4A/	4f/
=4	=4
2B\	2g/
2c\	1a
1B	.
.	2g#i/
=5	=5
0Al	0al
=6||	=6||
*>B	*>B
!!section: Quoniam confortavit
!!!OMD: Quoniam confortavit
!!LO:TX:Z=8:t=Choir 2
2c\	2a/
2c\	2a/
2c\	2a/
2c\	2a/
=7	=7
2c\	2a/
2c\	2a/
1c	1a
=8	=8
1c	1a
1A	1a
=9	=9
2B\	2g/
2c\	2a/
2d\	2b\
2A/	[2a/
=10	=10
1B	2a/]
.	2g#i/
1A	1a
=11	=11
1r	1r
1c	1a
=12	=12
2c\	2a/
2c\	2a/
1c	1a
=13	=13
2c\	2a/
2c\	2a/
1c	1a
=14	=14
2B\	2g#i/
2A/	2f#i/
1B	1g#i
=15	=15
0Al	0al
=16||	=16||
*>C	*>C
!!section: Qui posuit
!!!OMD: Qui posuit
!!LO:TX:Z=8:t=Choir 1
1c	1a
2c\	2a/
2c\	2a/
=17	=17
1c	1a
2c\	2a/
2c\	2a/
=18	=18
2c\	2a/
2c\	2a/
1c	1a
=19	=19
1A	1a
1r	1r
=20	=20
1c	1a
2c\	2a/
2c\	2a/
=21	=21
1c	1a
2B\	2g/
2G/	2e/
=22	=22
1A	1f
2.G/	2.e/
4A/	4f/
=23	=23
2B\	2g/
1c	1a
4B\	4g#i/
4A/	4f#i/
=24	=24
1B	1g#i
1Al	1al
=25||	=25||
*>D	*>D
!!LO:TX:Z=8:t=Choir 2
!!section: Qui emitit
!!!OMD: Qui emitit
1c	1a
2c\	2a/
2c\	2a/
=26	=26
1A	1a
1c	1a
=27	=27
2c\	2a/
2c\	2a/
2c\	2a/
[2d\	[2b\
=28	=28
2d\]	2b\]
2c\	1a
1B	.
.	2g#i/
=29	=29
1A	1a
1r	1r
=30	=30
1c	1a
2c\	2a/
2c\	2a/
=31	=31
2c\	2a/
2c\	2a/
1c	1a
=32	=32
2B\	2g#i/
2A/	2f#i/
1B	1g#i
=33	=33
0Al	0al
=34||	=34||
*>E	*>E
!!section: Qui dat nivem
!!!OMD: Qui dat nivem
!!LO:TX:Z=8:t=Choir 1
1c	1a
2c\	2a/
2c\	2a/
=35	=35
1c	1a
2c\	2a/
[2d\	[2b\
=36	=36
2d\]	2b\]
2c\	1a
1B	.
.	2g#i/
=37	=37
1A	1a
1r	1r
=38	=38
2c\	2a/
2c\	2a/
1c	1a
=39	=39
2c\	2a/
2c\	2a/
1A	1a
=40	=40
2B\	2g#i/
2A/	2f#i/
1B	1g#i
=41	=41
0Al	0al
=42||	=42||
*>F	*>F
!!LO:TX:Z=8:t=Choir 2
!!section: Mittit cristallum
!!!OMD: Mittit cristallum
2c\	2a/
2c\	2a/
2c\	2a/
2c\	2a/
=43	=43
2c\	2a/
2c\	2a/
1A	1a
=44	=44
2c\	2a/
1d	1b
2c\	[2a/
=45	=45
1B	2a/]
.	2g#i/
1A	1a
=46	=46
1r	1r
2c\	2a/
2c\	2a/
=47	=47
2c\	2a/
2c\	2a/
1c	1a
=48	=48
2c\	2a/
2c\	2a/
2c\	2a/
2c\	2a/
=49	=49
1c	1a
1c	1a
=50	=50
2B\	2g#i/
2A/	2f#i/
1B	1g#i
=51	=51
0Al	0al
=52||	=52||
*>G	*>G
!!section: Emittet verbum
!!!OMD: Emittet verbum
!!LO:TX:Z=8:t=Choir 1
2c\	2a/
2c\	2a/
2c\	2a/
2c\	2a/
=53	=53
2c\	2a/
2c\	2a/
1A	1a
=54	=54
1c	1a
2c\	2a/
2c\	2a/
=55	=55
2c\	2a/
1d	1b
2c\	[2a/
=56	=56
1B	2a/]
.	2g#i/
1A	1a
=57	=57
1r	1r
2c\	2a/
2c\	2a/
=58	=58
2c\	2a/
2c\	2a/
2c\	2a/
2c\	2a/
=59	=59
1c	1a
1B	1g
=60	=60
2.A/	2.f/
4B\	4g/
2c\	2a/
[2d\	[2b\
=61	=61
2d\]	2b\]
2c\	1a
1B	.
.	2g#i/
=62	=62
0Al	0al
=63||	=63||
*>H	*>H
!!LO:TX:Z=8:t=Choir 2
!!section: Qui annuntiat
!!!OMD: Qui annuntiat
2c\	2a/
2c\	2a/
2c\	2a/
2c\	2a/
=64	=64
1c	1a
2c\	2a/
2d\	2b\
=65	=65
2e\	2cc\
2d\	1b
1c	.
.	2a/
=66	=66
1B	1b
1r	1r
=67	=67
1c	1a
2c\	2a/
2c\	2a/
=68	=68
1c	1a
2c\	2a/
2c\	2a/
=69	=69
2c\	2a/
2c\	2a/
1A	1a
=70	=70
2B\	2g/
4A/	4f/
4G/	4e/
1A	1f
=71	=71
2.G/	2.e/
4A/	4f/
2B\	2g/
2c\	[2a/
=72	=72
1B	2a/]
.	2g#i/
1Al	1al
=73||	=73||
*>I	*>I
!!LO:TX:Z=8:t=Choir 1
!!section: Non fecit
!!!OMD: Non fecit
1c	1a
2c\	2a/
2c\	2a/
=74	=74
2c\	2a/
2c\	2a/
1c	1a
=75	=75
1B	1g
2c\	2a/
[2d\	[2b\
=76	=76
2d\]	2b\]
2c\	1a
1B	.
.	2g#i/
=77	=77
1A	1a
1r	1r
=78	=78
2c\	2a/
2c\	2a/
2c\	2a/
2c\	2a/
=79	=79
2c\	2a/
2c\	2a/
1c	1a
=80	=80
2B\	2g/
2G/	2e/
1A	1f
=81	=81
2G/	2e/
2A/	2f/
2B\	2g/
[2c\	[2a/
=82	=82
2c\]	2a/]
4B\	4g#i/
4A/	4f#i/
1B	1g#i
=83	=83
0Al	0al
=84||	=84||
*>J	*>J
!!section: Gloria Patri
!!!OMD: Gloria Patri
!!LO:TX:Z=8:t=Choir 2
1c	1a
2c\	2a/
2c\	2a/
=85	=85
1c	1a
2c\	2a/
[2d\	[2b\
=86	=86
2d\]	2b\]
2c\	1a
1B	.
.	2g#i/
=87	=87
1A	1a
1r	1r
=88	=88
1c	1a
2c\	2a/
2c\	2a/
=89	=89
1c	1a
2B\	2g/
4A/	4f/
4G/	4e/
=90	=90
1A	1f
2.G/	2.e/
4A/	4f/
=91	=91
2B\	2g/
2c\	1a
1B	.
.	2g#i/
=92	=92
0Al	0al
=93||	=93||
*>K	*>K
!!section: Sicut erat
!!!OMD: Sicut erat
!!LO:TX:Z=8:t=Choir 1
1c	1a
1c	1a
=94	=94
2c\	2a/
2c\	2a/
2c\	2a/
2c\	2a/
=95	=95
2c\	2a/
2c\	2a/
1c	1a
=96	=96
1B	1g
2c\	2a/
[2d\	[2b\
=97	=97
2d\]	2b\]
2c\	1a
1B	.
.	2g#i/
=98	=98
1A	1a
1r	1r
=99	=99
2c\	2a/
2c\	2a/
2c\	2a/
2c\	2a/
=100	=100
1c	1a
1B	1g
=101	=101
2.A/	2.f/
4B\	4g/
2c\	2a/
[2d\	[2b\
=102	=102
2d\]	2b\]
1c	1a
4B\	4g#i/
4A/	4f#i/
=103	=103
1B	1g#i
1Al	1al
==	==
*-	*-
!!!RDF**kern: l=long note in original notation
!!!RDF**kern: i=editorial accidental
!!!ENC:	Chris Gage 07-31-2014
!!!END:	2014/10/06/
!!!EED:	Jesse Rodin
!!!EEV:	2014/10/18/
!!!ONB:	Translated from MusicXML and edited on 2014/10/18/ by Craig Sapp
!!muse2ps: C^@{COM}^i2I150v85,150Q16
